X: 4
T: Music In The Glen
Z: Manu Novo
S: https://thesession.org/tunes/303#setting13067
R: reel
M: 4/4
L: 1/8
K: Gmaj
G2BG EGDc|BDGB AGAB|cdec BBdB|BAAG AGEF|
GABG EGDc|BDGB AGAB|cdef g2ge|dcBA G2 D2|
G2BG EGDc|BDGB AGAB|cdec ABBB|BABG AGEF|
GABG EGDc|BDGB AGAB|cdef g2ge|dcBA G2 D2|
|:BGdG egdA|AGdB cAFA|BGdG eg de|gdBG AGEG|
AGdG egde|ggfg a~f3|g2fg (3efg dB|BABG AGEG:|

